X: 1450
T: Nedir Bu Hâletin
C: Şevki Bey
O: Turkey
F: http://compmusic.upf.edu/node/140
N: huseyni--sarki--kapali_curcuna--nedir_bu_haletin--sevki_bey
N: makam= huseyni
N: form= sarki
N: usul= kapali_curcuna = 10/8
M: 10/8
L: 1/16
K: C _2/4B ^3/4f  
Q: 1/4=240
%%MIDI tuningsystem comma53
g2f2 g2a4g2 ^2/4f2e4d2  | d4 =f2e2 d2c2 B2A6  | \
w:  ARANAĞME  |   | 
g2f2 g2a4g2 ^2/4f2e4d2  | 
w:   | 
d4 g2f2 e2f2 g2a6  | a4 c'2b2 a2g2 f2e4d2  | \
w:   |   | 
d2c2 d2e2 d2c2 d2c4B2  | 
w:   | 
A2G2 A2B2 c2d2 e2c4B2  | A2B2 d2c2 B2B2 A2A6  | \
w:   |   | 
g2f2 g2a4g2 ^2/4f2e4d2  | 
w:  ARANAĞME  | 
d4 =f2e2 d2c2 B2A6  | g2f2 g2a4g2 ^2/4f2e4d2  | \
w:   |   | 
d4 g2f2 e2f2 g2a6  | 
w:   | 
a4 c'2b2 a2g2 f2e4d2  | d2c2 d2e2 d2c2 d2c4B2  | \
w:   |   | 
A2G2 A2B2 c2d2 e2c4B2  | 
w:   | 
A2B2 d2c2 B2B2 A2A6  | z4 d2e4e8-e2  | \
w:   |  Ne dir bu  | 
d6e4e4e6  | d4 f6e4g6  | 
w:  ha le tin ey  |  me  | 
f4 a2g2 f2f2 e2d4z2  | {b}a4 g2=f2 e2e8-e2  | \
w:  meh  |  *  ce ma *  *  lim  | 
z4 =f2e2 d2c2 B2A6  | 
w:  SAZ  | 
z4 d2e4e8-e2  | d6e4e4e6  | d4 f6e4g6  | \
w:  Ne dir bu  |  ha le tin ey  |  me  | 
f4 a2g2 f2f2 e2d4z2  | 
w:  meh  | 
{b}a4 g2=f2 e2e8-e2  | z4 =f2e2 d2c2 d2e6  | \
w:  *  ce ma *  *  lim  |  SAZ  | 
z4 d2g4g2 f2g2 f2a2  | 
w:  Na sıl kıy  | 
e12 a2e4d2  | z4 e2=f4f2 e2e4d2  | d18c2  | \
w:  dı  |  sa na ol  |  kan  | 
c2d2 e4 d2e2 d2c4B2  | 
w:  lı *  za  | 
c16-c4  | z4 =f2e2 d2c2 B2c6  | d4 e4 g2=f2 e2d2 c2d2  | \
w:  lim  |  SAZ  |  Na sıl *  kıy  | 
e8-e2e2 a2e4d2  | 
w:  dı  | 
z4 d2d2 c2c2 B2B4A2  | A8-A2A2 G2e4d2  | \
w:  sa na *  ol  |  kan  | 
c4 B4 A2A8-A2  | z4 e2d2 c2c2 =B2c6  | 
w:  lı za *  lim  |  SAZ  | 
z4 G2c4c8-c2  | d6e4e8-e2  | c4 d6=B4c6  | \
w:  Tü ken di  |  akl ü en  |  di *  şem  | 
A4 =B6G4c6  | z4 =f2e2 d2c2 =B2c6  | 
w:  ha ya lim  |  SAZ  | 
z4 G2c4c8-c2  | d6e4e8-e2  | e6f4d8-d2  | \
w:  Tü ken di  |  akl ü en  |  di *  şem  | 
d4 f6e4g6  | f4 a2g2 f2f2 e2d6  | 
w:  ha   |  ha  | 
a4 g2=f2 e2e8-e2  | z4 =f2e2 d2c2 d2e6  | \
w:  ha ya *  *  lim  |  SAZ  | 
z4 d2g4g2 f2g2 f2a2  | 
w:  Na sıl kıy  | 
e12 a2e4d2  | z4 e2=f4f2 e2e4d2  | d18c2  | \
w:  dı  |  sa na ol  |  kan  | 
c2d2 e4 d2e2 d2c4B2  | 
w:  lı *  za  | 
c16-c4  | z4 =f2e2 d2c2 B2c6  | d4 e4 g2=f2 e2d2 c2d2  | \
w:  lim  |  SAZ  |  Na sıl *  kıy  | 
e8-e2e2 a2e4d2  | 
w:  dı  | 
z4 d2d2 c2c2 B2B4A2  | A8-A2A2 G2e4d2  | \
w:  sa na *  ol  |  kan  | 
c4 B4 A2A8-A2  | |


